icons/System/menu-4-fill.svg

<svg xmlns="http://www.w3.org/2000/svg" viewBox="0 0 24 24">
    <g>
        <path fill="none" d="M0 0h24v24H0z"/>
        <path d="M16 18v2H5v-2h11zm5-7v2H3v-2h18zm-2-7v2H8V4h11z"/>
    </g>
</svg>

<svg viewBox="0 0 24 24" xmlns="http://www.w3.org/2000/svg"><path d="M16 18V20H5V18H16ZM21 11V13H3V11H21ZM19 4V6H8V4H19Z"/></svg>
